img/logo-footer.svg

<svg width="90" height="28" viewBox="0 0 90 28" fill="none" xmlns="http://www.w3.org/2000/svg">
<path fill-rule="evenodd" clip-rule="evenodd" d="M21.0365 0.96875V21.4531C21.0365 21.724 21.1273 21.9505 21.3088 22.1328C21.4903 22.3151 21.7159 22.4062 21.9856 22.4062H25.471C25.7407 22.4062 25.9663 22.3151 26.1478 22.1328C26.3293 21.9505 26.4201 21.724 26.4201 21.4531V12.056C27.9035 10.5664 29.2934 9.23438 30.5901 9.23438C32.5713 9.23438 33.5619 9.99478 33.5619 12.4844V21.4531C33.5619 21.724 33.6527 21.9505 33.8342 22.1328C34.0158 22.3151 34.2414 22.4062 34.5111 22.4062H37.9809C38.2609 22.4062 38.4917 22.3151 38.6732 22.1328C38.8548 21.9505 38.9455 21.724 38.9455 21.4531V12.4844C38.9455 9.9427 38.3128 8.05469 37.0473 6.82031C35.7818 5.58593 34.1402 4.96875 32.1227 4.96875C30.1051 4.96875 28.2043 5.72395 26.4201 7.23438V0.96875C26.4201 0.687499 26.3293 0.45573 26.1478 0.273438C25.9663 0.0911449 25.7407 0 25.471 0H21.9856C21.7159 0 21.4903 0.0911449 21.3088 0.273438C21.1273 0.45573 21.0365 0.687499 21.0365 0.96875ZM2.39617 20.4375C0.798715 18.9167 0 16.7266 0 13.8672C0 11.0078 0.803902 8.8099 2.41173 7.27344C4.01956 5.73697 6.24974 4.96875 9.10233 4.96875C11.9549 4.96875 14.1799 5.71614 15.7774 7.21094C17.3748 8.70574 18.1735 10.8489 18.1735 13.6406V14.5312C18.1735 14.8125 18.0828 15.0443 17.9013 15.2266C17.7197 15.4089 17.4889 15.5 17.2089 15.5H5.49252C5.59625 16.7813 5.9619 17.7135 6.58947 18.2969C7.21704 18.8802 8.22062 19.1719 9.60024 19.1719C10.9799 19.1719 11.9238 18.8594 12.4321 18.2344C12.9404 17.6094 13.9142 17.705 15.4164 17.9157C16.9186 18.1263 17.2575 18.9209 17.2089 19.1719C16.7323 21.6328 14.2357 22.7282 9.08677 22.7188C6.2238 22.7188 3.99362 21.9583 2.39617 20.4375ZM5.4614 12.2031H12.6966C12.5929 9.74478 11.3922 8.51562 9.09455 8.51562C6.79692 8.51562 5.58588 9.74478 5.4614 12.2031ZM45.7762 24.0312L47.8145 24.2969C49.0526 24.2969 49.9748 23.5243 50.581 21.9793C50.592 21.9514 50.5033 21.937 50.3389 21.9102C49.7121 21.8082 47.9841 21.5271 46.4764 19.6383C44.7481 17.4732 44.4913 16.6374 43.8218 14.4584L43.8213 14.457C43.7537 14.2368 43.6818 14.003 43.6038 13.7527L41.2854 6.2058C41.2543 6.12247 41.2387 6.02612 41.2387 5.91674C41.2387 5.80736 41.3036 5.67455 41.4332 5.5183C41.5629 5.36205 41.7574 5.27872 42.0167 5.2683L45.076 5.28125C45.3768 5.28125 45.6647 5.38281 45.9396 5.58594C46.2144 5.78906 46.3934 6.04167 46.4764 6.34375L48.5147 12.9688C49.0229 14.5938 49.539 15.7187 50.0628 16.3438C50.5867 16.9688 51.2065 17.2812 51.9222 17.2812L55.0186 6.34375C55.1015 6.04167 55.2649 5.78906 55.5087 5.58594C55.7524 5.38281 56.0247 5.28125 56.3256 5.28125H59.6086C59.8679 5.28125 60.0598 5.36458 60.1843 5.53125C60.3088 5.69792 60.371 5.83594 60.371 5.94531C60.371 6.05469 60.3607 6.14583 60.3399 6.21875L56.2633 20.8125C55.5372 23.3958 54.6373 25.2396 53.5637 26.3438C52.4901 27.4479 51.1079 28 49.4171 28L48.7672 27.9967C47.4163 27.9822 46.4375 27.9208 45.8306 27.8125C45.1305 27.6875 44.6922 27.5339 44.5159 27.3516C44.3395 27.1693 44.2513 26.9583 44.2513 26.7188V25C44.2513 24.7187 44.3395 24.487 44.5159 24.3047C44.6922 24.1224 44.9204 24.0312 45.2005 24.0312H45.7762ZM62.1448 21.2812C60.7756 20.3229 60.091 18.9688 60.091 17.2188C60.091 15.4688 60.7782 14.125 62.1526 13.1875C63.527 12.25 65.2982 11.7812 67.4662 11.7812H72.6164C72.6164 10.5625 72.3623 9.71354 71.854 9.23438C71.3457 8.75521 70.4562 8.51562 69.1855 8.51562C67.9995 8.51562 67.1434 8.79011 66.617 9.3391L66.5093 9.46094C65.9958 10.0911 64.3795 9.87688 62.9365 9.59891C61.4935 9.32095 61.4001 8.5848 61.5289 8.2017C62.2533 6.04639 65.0155 4.96875 69.8157 4.96875C72.2845 4.96875 74.2657 5.52343 75.7594 6.63281C77.2532 7.74219 78 9.45832 78 11.7812V21.4531C78 21.7344 77.9118 21.9635 77.7355 22.1406C77.5591 22.3177 77.3309 22.4062 77.0509 22.4062H74.0479C73.7678 22.4062 73.5396 22.3151 73.3633 22.1328C73.1869 21.9505 73.0987 21.724 73.0987 21.4531V20.9688C71.4598 22.1458 69.5693 22.7318 67.4273 22.7266C65.2852 22.7214 63.5244 22.2396 62.1448 21.2812ZM67.8396 15.3281H72.6164V17.7656C71.133 18.7031 69.5927 19.1719 67.9952 19.1719C67.1965 19.1719 66.5793 18.9896 66.1436 18.625C65.708 18.2604 65.4901 17.7969 65.4901 17.2344C65.4901 16.6719 65.7002 16.2135 66.1203 15.8594C66.5404 15.5052 67.1135 15.3281 67.8396 15.3281Z" fill="url(#paint0_linear)"/>
<path fill-rule="evenodd" clip-rule="evenodd" d="M86 14C88.2091 14 90 12.2091 90 10C90 7.79086 88.2091 6 86 6C83.7909 6 82 7.79086 82 10C82 12.2091 83.7909 14 86 14Z" fill="#1576D8"/>
<defs>
<linearGradient id="paint0_linear" x1="0" y1="0" x2="0" y2="28" gradientUnits="userSpaceOnUse">
<stop stop-color="#254A72"/>
<stop offset="1" stop-color="#10243E"/>
</linearGradient>
</defs>
</svg>

<svg width="90" height="28" fill="none" xmlns="http://www.w3.org/2000/svg"><path fill-rule="evenodd" clip-rule="evenodd" d="M21.037.969v20.484c0 .271.09.498.272.68a.917.917 0 0 0 .677.273h3.485c.27 0 .495-.09.677-.273a.925.925 0 0 0 .272-.68v-9.397c1.483-1.49 2.873-2.822 4.17-2.822 1.981 0 2.972.76 2.972 3.25v8.97c0 .27.09.497.272.679a.917.917 0 0 0 .677.273h3.47a.936.936 0 0 0 .965-.953v-8.969c0-2.541-.633-4.43-1.899-5.664-1.265-1.234-2.907-1.851-4.924-1.851-2.018 0-3.919.755-5.703 2.265V.97a.944.944 0 0 0-.272-.696A.917.917 0 0 0 25.47 0h-3.485a.917.917 0 0 0-.677.273.944.944 0 0 0-.273.696ZM2.396 20.437C.798 18.918 0 16.727 0 13.867c0-2.86.804-5.057 2.412-6.594C4.02 5.737 6.25 4.97 9.102 4.97c2.853 0 5.078.747 6.675 2.242 1.598 1.495 2.397 3.638 2.397 6.43v.89c0 .281-.091.513-.273.696a.936.936 0 0 1-.692.273H5.493c.103 1.281.469 2.213 1.096 2.797.628.583 1.632.875 3.011.875 1.38 0 2.324-.313 2.832-.938s1.482-.529 2.984-.318c1.503.21 1.841 1.005 1.793 1.256-.477 2.46-2.973 3.556-8.122 3.547-2.863 0-5.093-.76-6.69-2.282Zm3.064-8.234h7.236c-.104-2.458-1.305-3.687-3.602-3.687-2.298 0-3.51 1.229-3.634 3.687Zm40.315 11.828 2.038.266c1.239 0 2.16-.773 2.767-2.318.011-.028-.078-.042-.242-.069-.627-.102-2.355-.383-3.863-2.272-1.728-2.165-1.985-3-2.654-5.18v-.001l-.218-.704-2.319-7.547a.824.824 0 0 1-.046-.29c0-.109.065-.241.194-.398.13-.156.324-.24.584-.25l3.059.013c.3 0 .589.102.864.305.274.203.453.456.536.758l2.039 6.625c.508 1.625 1.024 2.75 1.548 3.375s1.143.937 1.86.937l3.096-10.937c.083-.302.246-.555.49-.758.243-.203.516-.305.817-.305h3.283c.259 0 .45.084.575.25.125.167.187.305.187.414 0 .11-.01.2-.031.274l-4.077 14.593c-.726 2.584-1.626 4.428-2.7 5.532C52.49 27.448 51.109 28 49.418 28l-.65-.003c-1.35-.015-2.33-.076-2.936-.184-.7-.125-1.139-.28-1.315-.461a.883.883 0 0 1-.265-.633V25c0-.281.089-.513.265-.695a.91.91 0 0 1 .684-.274h.576Zm16.369-2.75c-1.37-.958-2.054-2.312-2.054-4.062 0-1.75.687-3.094 2.062-4.032 1.374-.937 3.145-1.406 5.313-1.406h5.15c0-1.219-.254-2.067-.762-2.547-.508-.479-1.398-.718-2.668-.718-1.187 0-2.043.274-2.569.823l-.108.122c-.513.63-2.13.416-3.572.138-1.444-.278-1.537-1.014-1.408-1.397.724-2.156 3.486-3.233 8.287-3.233 2.468 0 4.45.554 5.943 1.664C77.253 7.743 78 9.458 78 11.78v9.672c0 .281-.088.51-.264.688a.924.924 0 0 1-.685.265h-3.003a.91.91 0 0 1-.685-.273.939.939 0 0 1-.264-.68v-.484c-1.64 1.177-3.53 1.763-5.672 1.758-2.142-.006-3.903-.487-5.282-1.446Zm5.695-5.953h4.776v2.438c-1.483.937-3.023 1.406-4.62 1.406-.8 0-1.417-.182-1.852-.547a1.735 1.735 0 0 1-.654-1.39c0-.563.21-1.021.63-1.376.42-.354.993-.53 1.72-.53Z" fill="url(#a)"/><path fill-rule="evenodd" clip-rule="evenodd" d="M86 14a4 4 0 1 0 0-8 4 4 0 0 0 0 8Z" fill="#1576D8"/><defs><linearGradient id="a" x1="0" y1="0" x2="0" y2="28" gradientUnits="userSpaceOnUse"><stop stop-color="#254A72"/><stop offset="1" stop-color="#10243E"/></linearGradient></defs></svg>
